%
G90
G21
G17
(Header)
(Generated by gcodetools from Inkscape.)
(Using default header. To add your own header create file "header" in the output dir.)
M3
(Header end.)
(All units in mm)
(Start cutting path id: path28128)
(Change tool to Default tool)
G00 Z5
G00 X70.6198 Y47.53497
(Penetrate)
F100
G01 Z-0.125
F400
G01 X70.6198 Y37.67762 Z-0.125
G01 X72.18491 Y37.67762 Z-0.125
G01 X73.07453 Y30.73205 Z-0.125
G01 X74.50774 Y30.73205 Z-0.125
G01 X74.50774 Y24.81382 Z-0.125
G01 X74.8866 Y24.81382 Z-0.125
G01 X74.8866 Y23.02818 Z-0.125
G01 X74.3191 Y23.40341 Z-0.125
G01 X73.59136 Y23.6252 Z-0.125
G01 X73.48575 Y23.88016 Z-0.125
G01 X73.47559 Y23.88993 Z-0.125
G01 X73.17966 Y24.00578 Z-0.125
G01 X72.88356 Y23.88996 Z-0.125
G01 X72.87325 Y23.88005 Z-0.125
G01 X72.76769 Y23.6252 Z-0.125
G01 X72.26508 Y23.49501 Z-0.125
G01 X71.79883 Y23.2666 Z-0.125
G01 X71.38791 Y22.94926 Z-0.125
G01 X71.35185 Y22.91415 Z-0.125
G01 X70.97567 Y22.37586 Z-0.125
G01 X70.80744 Y21.74107 Z-0.125
G01 X57.76035 Y21.74107 Z-0.125
G01 X57.76035 Y19.30549 Z-0.125
G01 X71.92746 Y19.30549 Z-0.125
G01 X71.92746 Y17.72577 Z-0.125
G01 X73.36068 Y17.72577 Z-0.125
G01 X72.94898 Y18.56313 Z-0.125
G01 X72.7183 Y19.01989 Z-0.125
G01 X73.17966 Y19.01989 Z-0.125
G01 X77.00138 Y19.01989 Z-0.125
G01 X77.46275 Y19.01989 Z-0.125
G01 X77.23206 Y18.56313 Z-0.125
G01 X76.82036 Y17.72577 Z-0.125
G01 X78.2533 Y17.72577 Z-0.125
G01 X78.2533 Y19.30549 Z-0.125
G01 X92.71704 Y19.30549 Z-0.125
G01 X92.71704 Y21.74107 Z-0.125
G01 X81.51514 Y21.74107 Z-0.125
G01 X81.3472 Y22.37578 Z-0.125
G01 X80.97118 Y22.91399 Z-0.125
G01 X80.93488 Y22.94933 Z-0.125
G01 X80.52386 Y23.26663 Z-0.125
G01 X80.05755 Y23.49502 Z-0.125
G01 X79.55489 Y23.6252 Z-0.125
G01 X79.44933 Y23.88005 Z-0.125
G01 X79.43902 Y23.88996 Z-0.125
G01 X79.14292 Y24.00578 Z-0.125
G01 X78.84699 Y23.88993 Z-0.125
G01 X78.83683 Y23.88016 Z-0.125
G01 X78.73122 Y23.6252 Z-0.125
G01 X78.22857 Y23.49501 Z-0.125
G01 X77.76226 Y23.26661 Z-0.125
G01 X77.35127 Y22.94928 Z-0.125
G01 X77.31504 Y22.91401 Z-0.125
G01 X76.93891 Y22.37579 Z-0.125
G01 X76.7707 Y21.74107 Z-0.125
G01 X75.55189 Y21.74107 Z-0.125
G01 X75.41075 Y22.30591 Z-0.125
G01 X75.11011 Y22.79677 Z-0.125
G01 X75.54554 Y22.79677 Z-0.125
G01 X75.54554 Y24.81382 Z-0.125
G01 X75.9244 Y24.81382 Z-0.125
G01 X75.9244 Y30.73205 Z-0.125
G01 X77.35761 Y30.73205 Z-0.125
G01 X78.24695 Y37.67762 Z-0.125
G01 X79.81206 Y37.67762 Z-0.125
G01 X79.81206 Y47.53497 Z-0.125
G01 X70.6198 Y47.53497 Z-0.125
G00 Z5
(End cutting path id: path28128)
(Start cutting path id: path28128)
(Change tool to Default tool)
G00 Z5
G00 X40.7522 Y45.48445
(Penetrate)
F100
G01 Z-0.125
F400
G01 X40.7522 Y39.43234 Z-0.125
G01 X41.39541 Y39.43234 Z-0.125
G01 X41.39541 Y45.48445 Z-0.125
G01 X40.7522 Y45.48445 Z-0.125
G00 Z5
(End cutting path id: path28128)
(Start cutting path id: path28128)
(Change tool to Default tool)
G00 Z5
G00 X46.46656 Y45.48445
(Penetrate)
F100
G01 Z-0.125
F400
G01 X46.46656 Y39.43234 Z-0.125
G01 X47.06342 Y39.43234 Z-0.125
G01 X47.06342 Y39.98154 Z-0.125
G01 X47.28085 Y39.70092 Z-0.125
G01 X47.53926 Y39.49686 Z-0.125
G01 X48.11777 Y39.33321 Z-0.125
G01 X48.72027 Y39.4833 Z-0.125
G01 X49.13647 Y39.79114 Z-0.125
G01 X49.27587 Y39.94839 Z-0.125
G01 X49.61197 Y40.61409 Z-0.125
G01 X49.72148 Y41.14744 Z-0.125
G01 X49.75821 Y41.69068 Z-0.125
G01 X49.7282 Y42.1613 Z-0.125
G01 X49.64397 Y42.58223 Z-0.125
G01 X49.4994 Y42.98515 Z-0.125
G01 X49.32581 Y43.2924 Z-0.125
G01 X49.15441 Y43.5005 Z-0.125
G01 X49.09571 Y43.55592 Z-0.125
G01 X48.81119 Y43.75077 Z-0.125
G01 X48.48986 Y43.87409 Z-0.125
G01 X48.15005 Y43.91588 Z-0.125
G01 X47.59448 Y43.76919 Z-0.125
G01 X47.28051 Y43.5301 Z-0.125
G01 X47.11005 Y43.32555 Z-0.125
G01 X47.11005 Y45.48445 Z-0.125
G01 X46.46656 Y45.48445 Z-0.125
G00 Z5
(End cutting path id: path28128)
(Start cutting path id: path28128)
(Change tool to Default tool)
G00 Z5
G00 X24.80199 Y43.91588
(Penetrate)
F100
G01 Z-0.125
F400
G01 X24.33227 Y43.84789 Z-0.125
G01 X23.89417 Y43.64749 Z-0.125
G01 X23.65985 Y43.4594 Z-0.125
G01 X23.54534 Y43.32954 Z-0.125
G01 X23.27579 Y42.85061 Z-0.125
G01 X23.12906 Y42.30759 Z-0.125
G01 X23.07215 Y41.60813 Z-0.125
G01 X23.10823 Y41.07924 Z-0.125
G01 X23.21582 Y40.56017 Z-0.125
G01 X23.544 Y39.91939 Z-0.125
G01 X23.65233 Y39.79916 Z-0.125
G01 X24.09393 Y39.48968 Z-0.125
G01 X24.79841 Y39.33321 Z-0.125
G01 X25.37372 Y39.44555 Z-0.125
G01 X25.84558 Y39.75842 Z-0.125
G01 X26.17535 Y40.23686 Z-0.125
G01 X26.37787 Y40.94321 Z-0.125
G01 X25.74542 Y41.0382 Z-0.125
G01 X25.61284 Y40.51131 Z-0.125
G01 X25.42368 Y40.21264 Z-0.125
G01 X25.40718 Y40.19567 Z-0.125
G01 X25.13949 Y40.01511 Z-0.125
G01 X24.79123 Y39.94425 Z-0.125
G01 X24.37177 Y40.04736 Z-0.125
G01 X24.12682 Y40.22735 Z-0.125
G01 X24.02634 Y40.3446 Z-0.125
G01 X23.8293 Y40.77643 Z-0.125
G01 X23.7333 Y41.62853 Z-0.125
G01 X23.83199 Y42.46658 Z-0.125
G01 X24.0371 Y42.90034 Z-0.125
G01 X24.13293 Y43.01077 Z-0.125
G01 X24.39312 Y43.20022 Z-0.125
G01 X24.82683 Y43.30483 Z-0.125
G01 X25.12453 Y43.2464 Z-0.125
G01 X25.37373 Y43.08171 Z-0.125
G01 X25.38169 Y43.07385 Z-0.125
G01 X25.55301 Y42.83186 Z-0.125
G01 X25.69189 Y42.41712 Z-0.125
G01 X26.31716 Y42.52868 Z-0.125
G01 X26.11867 Y43.14567 Z-0.125
G01 X25.85794 Y43.50983 Z-0.125
G01 X25.8133 Y43.5525 Z-0.125
G01 X25.38079 Y43.81501 Z-0.125
G01 X24.80199 Y43.91588 Z-0.125
G00 Z5
(End cutting path id: path28128)
(Start cutting path id: path28128)
(Change tool to Default tool)
G00 Z5
G00 X28.71532 Y43.91588
(Penetrate)
F100
G01 Z-0.125
F400
G01 X28.03395 Y43.72762 Z-0.125
G01 X27.74418 Y43.50168 Z-0.125
G01 X27.50727 Y43.19327 Z-0.125
G01 X27.50727 Y43.81675 Z-0.125
G01 X26.92836 Y43.81675 Z-0.125
G01 X26.92836 Y39.43234 Z-0.125
G01 X26.9286 Y39.43234 Z-0.125
G01 X27.57181 Y39.43234 Z-0.125
G01 X27.57181 Y41.82679 Z-0.125
G01 X27.67393 Y42.62724 Z-0.125
G01 X27.86844 Y42.97046 Z-0.125
G01 X27.86981 Y42.97184 Z-0.125
G01 X28.20057 Y43.19474 Z-0.125
G01 X28.57953 Y43.27168 Z-0.125
G01 X28.82506 Y43.23515 Z-0.125
G01 X29.02627 Y43.13558 Z-0.125
G01 X29.12377 Y43.05465 Z-0.125
G01 X29.18829 Y42.98009 Z-0.125
G01 X29.29448 Y42.77635 Z-0.125
G01 X29.34467 Y42.54931 Z-0.125
G01 X29.36926 Y42.09932 Z-0.125
G01 X29.36926 Y39.43234 Z-0.125
G01 X30.01274 Y39.43234 Z-0.125
G01 X30.01274 Y42.12833 Z-0.125
G01 X29.99985 Y42.64316 Z-0.125
G01 X29.97687 Y42.85061 Z-0.125
G01 X29.89375 Y43.15862 Z-0.125
G01 X29.77681 Y43.39982 Z-0.125
G01 X29.65365 Y43.5554 Z-0.125
G01 X29.60578 Y43.59977 Z-0.125
G01 X29.34442 Y43.77116 Z-0.125
G01 X29.04942 Y43.87789 Z-0.125
G01 X28.71529 Y43.91588 Z-0.125
G01 X28.71532 Y43.91588 Z-0.125
G00 Z5
(End cutting path id: path28128)
(Start cutting path id: path28128)
(Change tool to Default tool)
G00 Z5
G00 X32.53565 Y43.91588
(Penetrate)
F100
G01 Z-0.125
F400
G01 X32.06607 Y43.84787 Z-0.125
G01 X31.6281 Y43.64749 Z-0.125
G01 X31.39379 Y43.4594 Z-0.125
G01 X31.27928 Y43.32954 Z-0.125
G01 X31.00973 Y42.85061 Z-0.125
G01 X30.863 Y42.30759 Z-0.125
G01 X30.80609 Y41.60813 Z-0.125
G01 X30.84213 Y41.07926 Z-0.125
G01 X30.94959 Y40.56017 Z-0.125
G01 X31.27766 Y39.91939 Z-0.125
G01 X31.38597 Y39.79918 Z-0.125
G01 X31.82771 Y39.48966 Z-0.125
G01 X32.53234 Y39.33321 Z-0.125
G01 X33.1075 Y39.44558 Z-0.125
G01 X33.57925 Y39.75842 Z-0.125
G01 X33.90914 Y40.23685 Z-0.125
G01 X34.1118 Y40.94321 Z-0.125
G01 X33.47936 Y41.0382 Z-0.125
G01 X33.34679 Y40.51131 Z-0.125
G01 X33.15762 Y40.21264 Z-0.125
G01 X33.14111 Y40.19567 Z-0.125
G01 X32.87342 Y40.01511 Z-0.125
G01 X32.52517 Y39.94425 Z-0.125
G01 X32.10571 Y40.04736 Z-0.125
G01 X31.86076 Y40.22735 Z-0.125
G01 X31.76027 Y40.3446 Z-0.125
G01 X31.56324 Y40.77643 Z-0.125
G01 X31.46723 Y41.62853 Z-0.125
G01 X31.56592 Y42.46658 Z-0.125
G01 X31.77103 Y42.90034 Z-0.125
G01 X31.86687 Y43.01077 Z-0.125
G01 X32.12705 Y43.20022 Z-0.125
G01 X32.56077 Y43.30483 Z-0.125
G01 X32.85846 Y43.2464 Z-0.125
G01 X33.10767 Y43.08171 Z-0.125
G01 X33.11562 Y43.07385 Z-0.125
G01 X33.28694 Y42.83186 Z-0.125
G01 X33.42582 Y42.41712 Z-0.125
G01 X34.0511 Y42.52868 Z-0.125
G01 X33.8526 Y43.14567 Z-0.125
G01 X33.59187 Y43.50984 Z-0.125
G01 X33.54724 Y43.5525 Z-0.125
G01 X33.11457 Y43.81505 Z-0.125
G01 X32.53565 Y43.91588 Z-0.125
G00 Z5
(End cutting path id: path28128)
(Start cutting path id: path28128)
(Change tool to Default tool)
G00 Z5
G00 X38.63991 Y43.91588
(Penetrate)
F100
G01 Z-0.125
F400
G01 X38.17019 Y43.84789 Z-0.125
G01 X37.73208 Y43.64749 Z-0.125
G01 X37.49812 Y43.45966 Z-0.125
G01 X37.38342 Y43.32955 Z-0.125
G01 X37.11398 Y42.85061 Z-0.125
G01 X36.96713 Y42.30759 Z-0.125
G01 X36.91007 Y41.60813 Z-0.125
G01 X36.94615 Y41.07924 Z-0.125
G01 X37.05373 Y40.56017 Z-0.125
G01 X37.38192 Y39.91939 Z-0.125
G01 X37.49025 Y39.79916 Z-0.125
G01 X37.93184 Y39.48968 Z-0.125
G01 X38.63632 Y39.33321 Z-0.125
G01 X39.21163 Y39.44555 Z-0.125
G01 X39.6835 Y39.75842 Z-0.125
G01 X40.0134 Y40.23685 Z-0.125
G01 X40.21606 Y40.94321 Z-0.125
G01 X39.58334 Y41.0382 Z-0.125
G01 X39.45092 Y40.51131 Z-0.125
G01 X39.26187 Y40.21264 Z-0.125
G01 X39.24537 Y40.19567 Z-0.125
G01 X38.97756 Y40.01508 Z-0.125
G01 X38.62915 Y39.94425 Z-0.125
G01 X38.20984 Y40.04738 Z-0.125
G01 X37.96505 Y40.22731 Z-0.125
G01 X37.86453 Y40.3446 Z-0.125
G01 X37.6675 Y40.77643 Z-0.125
G01 X37.57149 Y41.62853 Z-0.125
G01 X37.67001 Y42.46658 Z-0.125
G01 X37.87502 Y42.90034 Z-0.125
G01 X37.97082 Y43.01073 Z-0.125
G01 X38.23116 Y43.20025 Z-0.125
G01 X38.66502 Y43.30483 Z-0.125
G01 X38.96257 Y43.24638 Z-0.125
G01 X39.21165 Y43.08171 Z-0.125
G01 X39.21962 Y43.07384 Z-0.125
G01 X39.39093 Y42.83186 Z-0.125
G01 X39.52981 Y42.41712 Z-0.125
G01 X40.15535 Y42.52868 Z-0.125
G01 X39.95687 Y43.14567 Z-0.125
G01 X39.69613 Y43.50983 Z-0.125
G01 X39.65149 Y43.5525 Z-0.125
G01 X39.21886 Y43.81503 Z-0.125
G01 X38.63991 Y43.91588 Z-0.125
G00 Z5
(End cutting path id: path28128)
(Start cutting path id: path28128)
(Change tool to Default tool)
G00 Z5
G00 X53.96816 Y43.91588
(Penetrate)
F100
G01 Z-0.125
F400
G01 X53.75582 Y43.87884 Z-0.125
G01 X53.55371 Y43.76702 Z-0.125
G01 X53.49172 Y43.71154 Z-0.125
G01 X53.39683 Y43.59552 Z-0.125
G01 X53.14615 Y43.15215 Z-0.125
G01 X53.14615 Y43.81675 Z-0.125
G01 X52.56723 Y43.81675 Z-0.125
G01 X52.56723 Y39.43234 Z-0.125
G01 X53.21072 Y39.43234 Z-0.125
G01 X53.21072 Y41.72766 Z-0.125
G01 X53.23939 Y42.19449 Z-0.125
G01 X53.31778 Y42.59466 Z-0.125
G01 X53.41994 Y42.83529 Z-0.125
G01 X53.52105 Y42.96553 Z-0.125
G01 X53.55729 Y42.99915 Z-0.125
G01 X53.73938 Y43.11069 Z-0.125
G01 X53.93615 Y43.14801 Z-0.125
G01 X54.16045 Y43.11078 Z-0.125
G01 X54.40773 Y42.98704 Z-0.125
G01 X54.62931 Y43.6765 Z-0.125
G01 X54.27608 Y43.86185 Z-0.125
G01 X53.96816 Y43.91588 Z-0.125
G00 Z5
(End cutting path id: path28128)
(Start cutting path id: path28128)
(Change tool to Default tool)
G00 Z5
G00 X42.38216 Y43.81675
(Penetrate)
F100
G01 Z-0.125
F400
G01 X42.38216 Y41.10036 Z-0.125
G01 X42.39522 Y40.62678 Z-0.125
G01 X42.42107 Y40.40676 Z-0.125
G01 X42.50428 Y40.09042 Z-0.125
G01 X42.61753 Y39.85341 Z-0.125
G01 X42.73718 Y39.70478 Z-0.125
G01 X42.78656 Y39.65901 Z-0.125
G01 X43.0502 Y39.48175 Z-0.125
G01 X43.35235 Y39.37125 Z-0.125
G01 X43.67906 Y39.33321 Z-0.125
G01 X44.33469 Y39.51927 Z-0.125
G01 X44.63386 Y39.7559 Z-0.125
G01 X44.88352 Y40.07653 Z-0.125
G01 X44.88352 Y39.43234 Z-0.125
G01 X44.88408 Y39.43234 Z-0.125
G01 X45.45941 Y39.43234 Z-0.125
G01 X45.45941 Y43.81675 Z-0.125
G01 X44.81593 Y43.81675 Z-0.125
G01 X44.81593 Y41.46756 Z-0.125
G01 X44.78146 Y40.91211 Z-0.125
G01 X44.70887 Y40.60884 Z-0.125
G01 X44.56622 Y40.34582 Z-0.125
G01 X44.48522 Y40.2534 Z-0.125
G01 X44.35153 Y40.14251 Z-0.125
G01 X44.08497 Y40.01535 Z-0.125
G01 X43.80821 Y39.97326 Z-0.125
G01 X43.53524 Y40.01837 Z-0.125
G01 X43.32229 Y40.13837 Z-0.125
G01 X43.2835 Y40.17436 Z-0.125
G01 X43.1653 Y40.33086 Z-0.125
G01 X43.06484 Y40.60056 Z-0.125
G01 X43.03994 Y40.80427 Z-0.125
G01 X43.02538 Y41.385 Z-0.125
G01 X43.02538 Y43.81675 Z-0.125
G01 X42.38217 Y43.81675 Z-0.125
G01 X42.38216 Y43.81675 Z-0.125
G00 Z5
(End cutting path id: path28128)
(Start cutting path id: path28128)
(Change tool to Default tool)
G00 Z5
G00 X55.0043 Y43.81675
(Penetrate)
F100
G01 Z-0.125
F400
G01 X55.0043 Y41.10036 Z-0.125
G01 X55.01792 Y40.62678 Z-0.125
G01 X55.04404 Y40.40676 Z-0.125
G01 X55.12725 Y40.09042 Z-0.125
G01 X55.24051 Y39.85341 Z-0.125
G01 X55.36034 Y39.70451 Z-0.125
G01 X55.40939 Y39.65903 Z-0.125
G01 X55.67289 Y39.48175 Z-0.125
G01 X55.97511 Y39.37124 Z-0.125
G01 X56.30203 Y39.33321 Z-0.125
G01 X56.95755 Y39.51929 Z-0.125
G01 X57.25649 Y39.75579 Z-0.125
G01 X57.50622 Y40.07653 Z-0.125
G01 X57.50622 Y39.43234 Z-0.125
G01 X58.08182 Y39.43234 Z-0.125
G01 X58.08182 Y43.81675 Z-0.125
G01 X57.43834 Y43.81675 Z-0.125
G01 X57.43834 Y41.46756 Z-0.125
G01 X57.40389 Y40.91212 Z-0.125
G01 X57.33127 Y40.60884 Z-0.125
G01 X57.18861 Y40.34581 Z-0.125
G01 X57.1076 Y40.2534 Z-0.125
G01 X56.97394 Y40.14251 Z-0.125
G01 X56.70735 Y40.01535 Z-0.125
G01 X56.43062 Y39.97326 Z-0.125
G01 X56.15764 Y40.01837 Z-0.125
G01 X55.94469 Y40.13837 Z-0.125
G01 X55.90591 Y40.17436 Z-0.125
G01 X55.78771 Y40.33086 Z-0.125
G01 X55.68725 Y40.60056 Z-0.125
G01 X55.66235 Y40.80427 Z-0.125
G01 X55.64779 Y41.385 Z-0.125
G01 X55.64779 Y43.81675 Z-0.125
G01 X55.0043 Y43.81675 Z-0.125
G00 Z5
(End cutting path id: path28128)
(Start cutting path id: path28128)
(Change tool to Default tool)
G00 Z5
G00 X48.09266 Y43.30483
(Penetrate)
F100
G01 Z-0.125
F400
G01 X48.46032 Y43.20671 Z-0.125
G01 X48.68848 Y43.03199 Z-0.125
G01 X48.80374 Y42.8962 Z-0.125
G01 X49.00482 Y42.45637 Z-0.125
G01 X49.10038 Y41.62853 Z-0.125
G01 X49.00362 Y40.82181 Z-0.125
G01 X48.79298 Y40.36532 Z-0.125
G01 X48.67591 Y40.22855 Z-0.125
G01 X48.43509 Y40.04373 Z-0.125
G01 X48.06396 Y39.94425 Z-0.125
G01 X47.62824 Y40.08126 Z-0.125
G01 X47.46107 Y40.22132 Z-0.125
G01 X47.24195 Y40.518 Z-0.125
G01 X47.11877 Y40.8845 Z-0.125
G01 X47.05624 Y41.65753 Z-0.125
G01 X47.15158 Y42.4274 Z-0.125
G01 X47.36363 Y42.87962 Z-0.125
G01 X47.48447 Y43.02145 Z-0.125
G01 X47.72216 Y43.20468 Z-0.125
G01 X48.09266 Y43.30483 Z-0.125
G00 Z5
(End cutting path id: path28128)
(Start cutting path id: path28128)
(Change tool to Default tool)
G00 Z5
G00 X34.41202 Y41.99605
(Penetrate)
F100
G01 Z-0.125
F400
G01 X34.41202 Y41.24889 Z-0.125
G01 X36.38827 Y41.24889 Z-0.125
G01 X36.38827 Y41.99605 Z-0.125
G01 X34.41202 Y41.99605 Z-0.125
G00 Z5
(End cutting path id: path28128)
(Start cutting path id: path28128)
(Change tool to Default tool)
G00 Z5
G00 X50.72674 Y40.27862
(Penetrate)
F100
G01 Z-0.125
F400
G01 X50.72674 Y39.43234 Z-0.125
G01 X51.45935 Y39.43234 Z-0.125
G01 X51.45935 Y40.27862 Z-0.125
G01 X50.72674 Y40.27862 Z-0.125
G00 Z5
(End cutting path id: path28128)
(Start cutting path id: path28128)
(Change tool to Default tool)
G00 Z5
G00 X17.15332 Y39.039
(Penetrate)
F100
G01 Z-0.125
F400
G01 X17.15332 Y34.28165 Z-0.125
G01 X16.84138 Y34.15244 Z-0.125
G01 X16.72621 Y33.95092 Z-0.125
G01 X16.6076 Y33.43898 Z-0.125
G01 X16.51503 Y32.92169 Z-0.125
G01 X16.44874 Y32.40039 Z-0.125
G01 X16.40889 Y31.8764 Z-0.125
G01 X16.3956 Y31.35107 Z-0.125
G01 X16.40978 Y30.81712 Z-0.125
G01 X16.44499 Y30.34254 Z-0.125
G01 X16.41243 Y30.36134 Z-0.125
G01 X14.58381 Y25.68017 Z-0.125
G01 X14.0144 Y25.5975 Z-0.125
G01 X13.45821 Y25.4502 Z-0.125
G01 X12.92253 Y25.24019 Z-0.125
G01 X12.76572 Y25.13102 Z-0.125
G01 X12.607 Y24.74783 Z-0.125
G01 X12.61194 Y24.69999 Z-0.125
G01 X12.62327 Y24.65252 Z-0.125
G01 X3.51351 Y24.65252 Z-0.125
G01 X3.51351 Y23.35871 Z-0.125
G01 X6.47873 Y23.35871 Z-0.125
G01 X6.47873 Y4.02461 Z-0.125
G01 X7.59875 Y4.02461 Z-0.125
G01 X7.59875 Y23.35871 Z-0.125
G01 X25.12676 Y23.35871 Z-0.125
G01 X25.12676 Y4.02461 Z-0.125
G01 X26.24679 Y4.02461 Z-0.125
G01 X26.24679 Y23.35871 Z-0.125
G01 X29.212 Y23.35871 Z-0.125
G01 X29.212 Y24.65252 Z-0.125
G01 X24.54123 Y24.65252 Z-0.125
G01 X24.54123 Y24.54319 Z-0.125
G01 X19.73111 Y24.54319 Z-0.125
G01 X19.73111 Y24.65252 Z-0.125
G01 X17.69718 Y24.65252 Z-0.125
G01 X17.71712 Y24.69997 Z-0.125
G01 X17.72974 Y24.74783 Z-0.125
G01 X17.56036 Y25.15677 Z-0.125
G01 X17.36704 Y25.28446 Z-0.125
G01 X16.88849 Y25.45281 Z-0.125
G01 X16.39705 Y25.57865 Z-0.125
G01 X15.89649 Y25.66103 Z-0.125
G01 X15.39063 Y25.6993 Z-0.125
G01 X16.69195 Y29.0484 Z-0.125
G01 X16.95376 Y28.52469 Z-0.125
G01 X16.98138 Y28.49168 Z-0.125
G01 X17.15331 Y28.42047 Z-0.125
G01 X17.15331 Y26.09901 Z-0.125
G01 X18.09232 Y26.09901 Z-0.125
G01 X18.09232 Y39.03899 Z-0.125
G01 X17.15331 Y39.03899 Z-0.125
G01 X17.15332 Y39.039 Z-0.125
G00 Z5
(End cutting path id: path28128)
(Start cutting path id: path28128)
(Change tool to Default tool)
G00 Z5
G00 X19.73112 Y24.65253
(Penetrate)
F100
G01 Z-0.125
F400
G01 X24.54124 Y24.65253 Z-0.125
G01 X24.54124 Y25.41848 Z-0.125
G01 X19.73112 Y25.72289 Z-0.125
G01 X19.73112 Y24.65253 Z-0.125
G00 Z5
(End cutting path id: path28128)
(Start cutting path id: path28128)
(Change tool to Default tool)
G00 Z5
G00 X25.14305 Y38.07893
(Penetrate)
F100
G01 Z-0.125
F400
G01 X24.98173 Y38.05465 Z-0.125
G01 X24.81579 Y37.97916 Z-0.125
G01 X24.5319 Y37.76973 Z-0.125
G01 X24.13161 Y37.44131 Z-0.125
G01 X23.72734 Y37.11781 Z-0.125
G01 X23.31915 Y36.79927 Z-0.125
G01 X22.90709 Y36.48575 Z-0.125
G01 X22.49122 Y36.1773 Z-0.125
G01 X22.07162 Y35.87395 Z-0.125
G01 X21.64834 Y35.57576 Z-0.125
G01 X21.22144 Y35.28277 Z-0.125
G01 X20.79099 Y34.99502 Z-0.125
G01 X20.79099 Y34.9953 Z-0.125
G01 X20.56088 Y34.82493 Z-0.125
G01 X20.55597 Y34.82035 Z-0.125
G01 X20.52774 Y34.7522 Z-0.125
G01 X20.53685 Y34.71129 Z-0.125
G01 X20.55201 Y34.68974 Z-0.125
G01 X20.60632 Y34.66724 Z-0.125
G01 X20.61411 Y34.66764 Z-0.125
G01 X20.90716 Y34.76867 Z-0.125
G01 X21.34558 Y35.02475 Z-0.125
G01 X21.78692 Y35.27578 Z-0.125
G01 X22.2311 Y35.52175 Z-0.125
G01 X22.67808 Y35.7626 Z-0.125
G01 X23.12779 Y35.99831 Z-0.125
G01 X23.58017 Y36.22885 Z-0.125
G01 X24.03516 Y36.45418 Z-0.125
G01 X24.49271 Y36.67429 Z-0.125
G01 X24.95275 Y36.88913 Z-0.125
G01 X25.25232 Y37.04773 Z-0.125
G01 X25.4022 Y37.16502 Z-0.125
G01 X25.577 Y37.43093 Z-0.125
G01 X25.6138 Y37.62352 Z-0.125
G01 X25.5644 Y37.84524 Z-0.125
G01 X25.4902 Y37.951 Z-0.125
G01 X25.39882 Y38.01808 Z-0.125
G01 X25.15073 Y38.07894 Z-0.125
G01 X25.14305 Y38.07889 Z-0.125
G01 X25.14305 Y38.07893 Z-0.125
G00 Z5
(End cutting path id: path28128)
(Start cutting path id: path28128)
(Change tool to Default tool)
G00 Z5
G00 X54.29184 Y36.4364
(Penetrate)
F100
G01 Z-0.125
F400
G01 X53.75523 Y36.37286 Z-0.125
G01 X53.24039 Y36.20875 Z-0.125
G01 X52.766 Y35.95002 Z-0.125
G01 X52.34926 Y35.60604 Z-0.125
G01 X52.17494 Y35.41506 Z-0.125
G01 X51.84896 Y34.96306 Z-0.125
G01 X51.58868 Y34.4703 Z-0.125
G01 X51.3991 Y33.94626 Z-0.125
G01 X51.28387 Y33.40103 Z-0.125
G01 X51.24522 Y32.84509 Z-0.125
G01 X51.24578 Y32.77779 Z-0.125
G01 X51.296 Y32.21153 Z-0.125
G01 X51.42653 Y31.65823 Z-0.125
G01 X51.63469 Y31.12922 Z-0.125
G01 X51.91621 Y30.63533 Z-0.125
G01 X52.26534 Y30.18668 Z-0.125
G01 X52.36669 Y30.07986 Z-0.125
G01 X52.79169 Y29.73107 Z-0.125
G01 X53.27658 Y29.47189 Z-0.125
G01 X53.80272 Y29.31229 Z-0.125
G01 X54.34988 Y29.2584 Z-0.125
G01 X54.41297 Y29.25911 Z-0.125
G01 X54.94966 Y29.32266 Z-0.125
G01 X55.46457 Y29.48679 Z-0.125
G01 X55.93902 Y29.74556 Z-0.125
G01 X56.35582 Y30.08958 Z-0.125
G01 X56.53003 Y30.28043 Z-0.125
G01 X56.85604 Y30.73242 Z-0.125
G01 X57.11636 Y31.22518 Z-0.125
G01 X57.30597 Y31.74923 Z-0.125
G01 X57.42121 Y32.29447 Z-0.125
G01 X57.45987 Y32.85043 Z-0.125
G01 X57.45931 Y32.91772 Z-0.125
G01 X57.40908 Y33.484 Z-0.125
G01 X57.27853 Y34.03731 Z-0.125
G01 X57.07035 Y34.56633 Z-0.125
G01 X56.7888 Y35.06022 Z-0.125
G01 X56.43963 Y35.50886 Z-0.125
G01 X56.3384 Y35.61554 Z-0.125
G01 X55.91334 Y35.96438 Z-0.125
G01 X55.42838 Y36.22359 Z-0.125
G01 X54.90218 Y36.38321 Z-0.125
G01 X54.35494 Y36.43711 Z-0.125
G01 X54.29184 Y36.4364 Z-0.125
G00 Z5
(End cutting path id: path28128)
(Start cutting path id: path28128)
(Change tool to Default tool)
G00 Z5
G00 X26.7868 Y34.86911
(Penetrate)
F100
G01 Z-0.125
F400
G01 X26.7275 Y34.87158 Z-0.125
G01 X26.65506 Y34.86789 Z-0.125
G01 X26.51887 Y34.8401 Z-0.125
G01 X26.14429 Y34.69501 Z-0.125
G01 X25.66089 Y34.4764 Z-0.125
G01 X25.17498 Y34.26343 Z-0.125
G01 X24.68663 Y34.05614 Z-0.125
G01 X24.19589 Y33.85455 Z-0.125
G01 X23.70283 Y33.6587 Z-0.125
G01 X23.20752 Y33.4686 Z-0.125
G01 X22.71004 Y33.28429 Z-0.125
G01 X22.21044 Y33.10579 Z-0.125
G01 X21.70879 Y32.93312 Z-0.125
G01 X21.20517 Y32.76632 Z-0.125
G01 X20.90445 Y32.6485 Z-0.125
G01 X20.87542 Y32.62769 Z-0.125
G01 X20.84328 Y32.55011 Z-0.125
G01 X20.8459 Y32.5263 Z-0.125
G01 X20.87253 Y32.47787 Z-0.125
G01 X20.92492 Y32.45044 Z-0.125
G01 X21.06094 Y32.43821 Z-0.125
G01 X21.2816 Y32.47083 Z-0.125
G01 X21.78845 Y32.60415 Z-0.125
G01 X22.2967 Y32.73196 Z-0.125
G01 X22.80632 Y32.85427 Z-0.125
G01 X23.31722 Y32.97106 Z-0.125
G01 X23.82936 Y33.08231 Z-0.125
G01 X24.34268 Y33.18801 Z-0.125
G01 X24.85711 Y33.28815 Z-0.125
G01 X25.37259 Y33.38271 Z-0.125
G01 X25.88906 Y33.47169 Z-0.125
G01 X26.40647 Y33.55507 Z-0.125
G01 X26.78625 Y33.63714 Z-0.125
G01 X27.14866 Y33.84869 Z-0.125
G01 X27.24372 Y33.96261 Z-0.125
G01 X27.3521 Y34.30966 Z-0.125
G01 X27.33757 Y34.44198 Z-0.125
G01 X27.20418 Y34.68496 Z-0.125
G01 X27.14842 Y34.733 Z-0.125
G01 X26.7868 Y34.86911 Z-0.125
G00 Z5
(End cutting path id: path28128)
(Start cutting path id: path28128)
(Change tool to Default tool)
G00 Z5
G00 X67.83313 Y33.62598
(Penetrate)
F100
G01 Z-0.125
F400
G01 X67.56508 Y33.55361 Z-0.125
G01 X67.50137 Y33.50734 Z-0.125
G01 X67.43081 Y33.36875 Z-0.125
G01 X67.4256 Y33.30162 Z-0.125
G01 X67.52298 Y33.02742 Z-0.125
G01 X67.55771 Y32.98892 Z-0.125
G01 X67.81188 Y32.85174 Z-0.125
G01 X68.40658 Y32.66261 Z-0.125
G01 X68.94975 Y32.35534 Z-0.125
G01 X69.44414 Y31.98586 Z-0.125
G01 X69.9206 Y31.59355 Z-0.125
G01 X70.37808 Y31.17926 Z-0.125
G01 X70.46034 Y31.12965 Z-0.125
G01 X70.47881 Y31.1266 Z-0.125
G01 X70.51938 Y31.1434 Z-0.125
G01 X70.52046 Y31.14451 Z-0.125
G01 X70.5381 Y31.18848 Z-0.125
G01 X70.53806 Y31.19076 Z-0.125
G01 X70.50833 Y31.26628 Z-0.125
G01 X70.12928 Y31.69309 Z-0.125
G01 X69.7446 Y32.11485 Z-0.125
G01 X69.35437 Y32.53148 Z-0.125
G01 X68.95866 Y32.9429 Z-0.125
G01 X68.55753 Y33.34905 Z-0.125
G01 X67.88516 Y33.62739 Z-0.125
G01 X67.8334 Y33.62598 Z-0.125
G01 X67.83316 Y33.62598 Z-0.125
G01 X67.83313 Y33.62598 Z-0.125
G00 Z5
(End cutting path id: path28128)
(Start cutting path id: path28128)
(Change tool to Default tool)
G00 Z5
G00 X50.61168 Y32.9088
(Penetrate)
F100
G01 Z-0.125
F400
G01 X50.52972 Y32.88808 Z-0.125
G01 X50.43122 Y32.86706 Z-0.125
G01 X50.39221 Y32.86374 Z-0.125
G01 X50.32401 Y32.87403 Z-0.125
G01 X50.25561 Y32.88435 Z-0.125
G01 X50.21681 Y32.88108 Z-0.125
G01 X50.15909 Y32.84583 Z-0.125
G01 X50.14128 Y32.82416 Z-0.125
G01 X50.1034 Y32.76442 Z-0.125
G01 X49.87355 Y32.70226 Z-0.125
G01 X49.33766 Y32.63694 Z-0.125
G01 X48.80567 Y32.52599 Z-0.125
G01 X48.53143 Y32.46849 Z-0.125
G01 X48.5057 Y32.46734 Z-0.125
G01 X48.3777 Y32.49731 Z-0.125
G01 X47.82494 Y32.73784 Z-0.125
G01 X47.58457 Y32.77829 Z-0.125
G01 X47.35204 Y32.74051 Z-0.125
G01 X44.23976 Y31.66186 Z-0.125
G01 X44.12228 Y31.44924 Z-0.125
G01 X44.06481 Y31.09676 Z-0.125
G01 X44.06979 Y30.99185 Z-0.125
G01 X44.18104 Y30.46113 Z-0.125
G01 X44.18623 Y30.41523 Z-0.125
G01 X44.25047 Y30.19656 Z-0.125
G01 X44.35207 Y29.89439 Z-0.125
G01 X44.5789 Y29.55723 Z-0.125
G01 X44.60034 Y29.53639 Z-0.125
G01 X44.78805 Y29.42838 Z-0.125
G01 X45.41083 Y29.6327 Z-0.125
G01 X45.55984 Y30.56855 Z-0.125
G01 X45.74652 Y31.17336 Z-0.125
G01 X46.11219 Y31.69003 Z-0.125
G01 X46.12366 Y31.70163 Z-0.125
G01 X46.56349 Y32.00302 Z-0.125
G01 X47.08245 Y32.12533 Z-0.125
G01 X47.14599 Y32.12682 Z-0.125
G01 X47.77071 Y31.97321 Z-0.125
G01 X48.19718 Y31.65976 Z-0.125
G01 X48.36225 Y31.46902 Z-0.125
G01 X48.4825 Y31.2898 Z-0.125
G01 X48.58272 Y31.09353 Z-0.125
G01 X48.63209 Y31.18121 Z-0.125
G01 X48.67875 Y31.26693 Z-0.125
G01 X48.73147 Y31.33462 Z-0.125
G01 X48.79888 Y31.38718 Z-0.125
G01 X49.05347 Y31.50376 Z-0.125
G01 X49.55771 Y31.73945 Z-0.125
G01 X50.04987 Y32.02109 Z-0.125
G01 X50.27917 Y32.10238 Z-0.125
G01 X50.33702 Y32.08188 Z-0.125
G01 X50.3739 Y32.07773 Z-0.125
G01 X50.4279 Y32.08677 Z-0.125
G01 X50.48701 Y32.12976 Z-0.125
G01 X50.50898 Y32.15513 Z-0.125
G01 X50.53093 Y32.18047 Z-0.125
G01 X50.59015 Y32.22351 Z-0.125
G01 X50.68839 Y32.26367 Z-0.125
G01 X50.77006 Y32.30352 Z-0.125
G01 X50.68259 Y32.60633 Z-0.125
G01 X50.61168 Y32.90883 Z-0.125
G01 X50.61168 Y32.9088 Z-0.125
G00 Z5
(End cutting path id: path28128)
(Start cutting path id: path28128)
(Change tool to Default tool)
G00 Z5
G00 X44.18623 Y30.41521
(Penetrate)
F100
G01 Z-0.125
F400
G01 X44.18193 Y30.42925 Z-0.125
G01 X44.17796 Y30.44231 Z-0.125
G01 X44.18562 Y30.41512 Z-0.125
G01 X44.18623 Y30.41521 Z-0.125
G00 Z5
(End cutting path id: path28128)
(Start cutting path id: path28128)
(Change tool to Default tool)
G00 Z5
G00 X85.07554 Y32.336
(Penetrate)
F100
G01 Z-0.125
F400
G01 X84.33842 Y32.02529 Z-0.125
G01 X84.29639 Y31.98077 Z-0.125
G01 X83.94673 Y31.58391 Z-0.125
G01 X83.60138 Y31.18329 Z-0.125
G01 X83.2604 Y30.77894 Z-0.125
G01 X82.92382 Y30.37093 Z-0.125
G01 X82.59169 Y29.95929 Z-0.125
G01 X82.26403 Y29.54407 Z-0.125
G01 X82.23537 Y29.46105 Z-0.125
G01 X82.2354 Y29.45823 Z-0.125
G01 X82.25571 Y29.41061 Z-0.125
G01 X82.25712 Y29.40924 Z-0.125
G01 X82.29989 Y29.39233 Z-0.125
G01 X82.32383 Y29.39709 Z-0.125
G01 X82.40624 Y29.45214 Z-0.125
G01 X82.41192 Y29.45801 Z-0.125
G01 X82.74729 Y29.80446 Z-0.125
G01 X83.1254 Y30.16942 Z-0.125
G01 X83.51619 Y30.52077 Z-0.125
G01 X83.91916 Y30.85808 Z-0.125
G01 X84.49823 Y31.235 Z-0.125
G01 X85.14175 Y31.48653 Z-0.125
G01 X85.39216 Y31.63254 Z-0.125
G01 X85.45067 Y31.70116 Z-0.125
G01 X85.5424 Y31.98422 Z-0.125
G01 X85.5322 Y32.08291 Z-0.125
G01 X85.45859 Y32.21882 Z-0.125
G01 X85.37429 Y32.27604 Z-0.125
G01 X85.08384 Y32.33605 Z-0.125
G01 X85.07553 Y32.336 Z-0.125
G01 X85.07554 Y32.336 Z-0.125
G00 Z5
(End cutting path id: path28128)
(Start cutting path id: path28128)
(Change tool to Default tool)
G00 Z5
G00 X80.52784 Y32.03733
(Penetrate)
F100
G01 Z-0.125
F400
G01 X80.50944 Y32.03767 Z-0.125
G01 X80.43637 Y32.03225 Z-0.125
G01 X80.33441 Y32.01024 Z-0.125
G01 X79.91503 Y31.76382 Z-0.125
G01 X79.75278 Y31.54841 Z-0.125
G01 X79.48613 Y31.05985 Z-0.125
G01 X79.22544 Y30.56807 Z-0.125
G01 X78.97076 Y30.07317 Z-0.125
G01 X78.72212 Y29.57519 Z-0.125
G01 X78.47957 Y29.07423 Z-0.125
G01 X78.46771 Y29.02207 Z-0.125
G01 X78.4706 Y28.99581 Z-0.125
G01 X78.48489 Y28.9698 Z-0.125
G01 X78.49639 Y28.96108 Z-0.125
G01 X78.52162 Y28.9545 Z-0.125
G01 X78.55263 Y28.96484 Z-0.125
G01 X78.57851 Y28.98729 Z-0.125
G01 X78.61614 Y29.03598 Z-0.125
G01 X78.93186 Y29.54936 Z-0.125
G01 X79.26947 Y30.0486 Z-0.125
G01 X79.62835 Y30.53279 Z-0.125
G01 X79.8892 Y30.82875 Z-0.125
G01 X80.53169 Y31.32301 Z-0.125
G01 X80.64175 Y31.40771 Z-0.125
G01 X80.75415 Y31.5724 Z-0.125
G01 X80.78872 Y31.7377 Z-0.125
G01 X80.75409 Y31.90314 Z-0.125
G01 X80.71161 Y31.96535 Z-0.125
G01 X80.66256 Y32.0015 Z-0.125
G01 X80.52783 Y32.03733 Z-0.125
G01 X80.52784 Y32.03733 Z-0.125
G00 Z5
(End cutting path id: path28128)
(Start cutting path id: path28128)
(Change tool to Default tool)
G00 Z5
G00 X47.07997 Y31.96817
(Penetrate)
F100
G01 Z-0.125
F400
G01 X46.19941 Y31.57908 Z-0.125
G01 X46.18921 Y31.56877 Z-0.125
G01 X45.85346 Y31.09464 Z-0.125
G01 X45.68208 Y30.53953 Z-0.125
G01 X44.43374 Y22.44837 Z-0.125
G01 X44.40989 Y22.14135 Z-0.125
G01 X44.53335 Y21.4517 Z-0.125
G01 X44.90953 Y20.8646 Z-0.125
G01 X45.07223 Y20.72218 Z-0.125
G01 X45.88437 Y20.44623 Z-0.125
G01 X45.88766 Y20.44622 Z-0.125
G01 X46.69725 Y20.71819 Z-0.125
G01 X53.02474 Y25.46789 Z-0.125
G01 X53.20678 Y25.62581 Z-0.125
G01 X53.50996 Y26.03765 Z-0.125
G01 X53.67712 Y26.52096 Z-0.125
G01 X53.70939 Y26.87423 Z-0.125
G01 X53.45968 Y27.82894 Z-0.125
G01 X53.21129 Y28.15669 Z-0.125
G01 X52.50648 Y28.55424 Z-0.125
G01 X52.19516 Y28.59205 Z-0.125
G01 X51.41603 Y28.33282 Z-0.125
G01 X47.94227 Y25.72704 Z-0.125
G01 X48.59127 Y29.94378 Z-0.125
G01 X48.61775 Y30.26681 Z-0.125
G01 X48.56649 Y30.71487 Z-0.125
G01 X48.25889 Y31.37763 Z-0.125
G01 X48.11355 Y31.54558 Z-0.125
G01 X47.71367 Y31.83402 Z-0.125
G01 X47.14032 Y31.96959 Z-0.125
G01 X47.07997 Y31.96817 Z-0.125
G00 Z5
(End cutting path id: path28128)
(Start cutting path id: path28128)
(Change tool to Default tool)
G00 Z5
G00 X26.1367 Y30.45442
(Penetrate)
F100
G01 Z-0.125
F400
G01 X26.08026 Y30.45497 Z-0.125
G01 X25.76979 Y30.43832 Z-0.125
G01 X25.23146 Y30.38404 Z-0.125
G01 X24.69246 Y30.33699 Z-0.125
G01 X24.15288 Y30.29716 Z-0.125
G01 X23.61281 Y30.26456 Z-0.125
G01 X23.07235 Y30.2392 Z-0.125
G01 X22.5316 Y30.22108 Z-0.125
G01 X21.99066 Y30.21021 Z-0.125
G01 X21.44962 Y30.20659 Z-0.125
G01 X20.92923 Y30.20994 Z-0.125
G01 X20.92948 Y30.21051 Z-0.125
G01 X20.86534 Y30.21175 Z-0.125
G01 X20.63596 Y30.19572 Z-0.125
G01 X20.58236 Y30.16899 Z-0.125
G01 X20.55476 Y30.105 Z-0.125
G01 X20.58577 Y30.03013 Z-0.125
G01 X20.60937 Y30.01235 Z-0.125
G01 X20.93058 Y29.92331 Z-0.125
G01 X21.46839 Y29.88484 Z-0.125
G01 X22.00568 Y29.83982 Z-0.125
G01 X22.54239 Y29.78827 Z-0.125
G01 X23.07844 Y29.7302 Z-0.125
G01 X23.61373 Y29.66561 Z-0.125
G01 X24.14821 Y29.59451 Z-0.125
G01 X24.68177 Y29.51692 Z-0.125
G01 X25.21436 Y29.43284 Z-0.125
G01 X25.74588 Y29.34228 Z-0.125
G01 X26.103 Y29.30079 Z-0.125
G01 X26.14211 Y29.29969 Z-0.125
G01 X26.57998 Y29.45477 Z-0.125
G01 X26.62125 Y29.49193 Z-0.125
G01 X26.77656 Y29.85191 Z-0.125
G01 X26.77679 Y29.86775 Z-0.125
G01 X26.61881 Y30.24916 Z-0.125
G01 X26.60717 Y30.26045 Z-0.125
G01 X26.13666 Y30.45435 Z-0.125
G01 X26.1367 Y30.45442 Z-0.125
G00 Z5
(End cutting path id: path28128)
(Start cutting path id: path28128)
(Change tool to Default tool)
G00 Z5
G00 X68.13224 Y30.35784
(Penetrate)
F100
G01 Z-0.125
F400
G01 X67.88422 Y30.29078 Z-0.125
G01 X67.82529 Y30.24798 Z-0.125
G01 X67.76 Y30.11973 Z-0.125
G01 X67.75505 Y30.05696 Z-0.125
G01 X67.84511 Y29.8038 Z-0.125
G01 X67.87701 Y29.76847 Z-0.125
G01 X68.11265 Y29.64129 Z-0.125
G01 X68.66332 Y29.46614 Z-0.125
G01 X69.16625 Y29.18157 Z-0.125
G01 X69.62399 Y28.8394 Z-0.125
G01 X70.06514 Y28.4761 Z-0.125
G01 X70.48873 Y28.09248 Z-0.125
G01 X70.56499 Y28.04652 Z-0.125
G01 X70.58208 Y28.0437 Z-0.125
G01 X70.61962 Y28.05925 Z-0.125
G01 X70.62063 Y28.06029 Z-0.125
G01 X70.63686 Y28.10092 Z-0.125
G01 X70.63682 Y28.10301 Z-0.125
G01 X70.60903 Y28.17313 Z-0.125
G01 X70.25806 Y28.56832 Z-0.125
G01 X69.90188 Y28.95882 Z-0.125
G01 X69.54055 Y29.34455 Z-0.125
G01 X69.17413 Y29.72546 Z-0.125
G01 X68.80269 Y30.10148 Z-0.125
G01 X68.18016 Y30.35914 Z-0.125
G01 X68.13223 Y30.35784 Z-0.125
G01 X68.13224 Y30.35784 Z-0.125
G00 Z5
(End cutting path id: path28128)
(Start cutting path id: path28128)
(Change tool to Default tool)
G00 Z5
G00 X80.70968 Y29.71046
(Penetrate)
F100
G01 Z-0.125
F400
G01 X80.66366 Y29.71256 Z-0.125
G01 X80.65717 Y29.71252 Z-0.125
G01 X80.60124 Y29.70961 Z-0.125
G01 X80.13851 Y29.49108 Z-0.125
G01 X80.07356 Y29.41709 Z-0.125
G01 X79.73423 Y28.96843 Z-0.125
G01 X79.40208 Y28.51443 Z-0.125
G01 X79.07719 Y28.05521 Z-0.125
G01 X78.75964 Y27.59088 Z-0.125
G01 X78.74226 Y27.53548 Z-0.125
G01 X78.74248 Y27.5289 Z-0.125
G01 X78.75964 Y27.49621 Z-0.125
G01 X78.80657 Y27.49144 Z-0.125
G01 X78.85246 Y27.52493 Z-0.125
G01 X78.8656 Y27.53956 Z-0.125
G01 X79.23245 Y27.96932 Z-0.125
G01 X79.62136 Y28.37923 Z-0.125
G01 X79.85801 Y28.60873 Z-0.125
G01 X80.68402 Y29.11961 Z-0.125
G01 X80.83306 Y29.21498 Z-0.125
G01 X80.89143 Y29.28844 Z-0.125
G01 X80.94294 Y29.46841 Z-0.125
G01 X80.93043 Y29.5598 Z-0.125
G01 X80.88475 Y29.63804 Z-0.125
G01 X80.84931 Y29.6655 Z-0.125
G01 X80.70968 Y29.71057 Z-0.125
G01 X80.70968 Y29.71046 Z-0.125
G00 Z5
(End cutting path id: path28128)
(Start cutting path id: path28128)
(Change tool to Default tool)
G00 Z5
G00 X64.88806 Y29.32541
(Penetrate)
F100
G01 Z-0.125
F400
G01 X64.83649 Y29.32664 Z-0.125
G01 X64.62208 Y29.30516 Z-0.125
G01 X64.41704 Y29.22787 Z-0.125
G01 X64.25962 Y29.10725 Z-0.125
G01 X64.20305 Y29.04394 Z-0.125
G01 X64.14469 Y28.8771 Z-0.125
G01 X64.1502 Y28.82306 Z-0.125
G01 X64.2499 Y28.63783 Z-0.125
G01 X64.34635 Y28.56862 Z-0.125
G01 X64.53981 Y28.52338 Z-0.125
G01 X64.65682 Y28.53937 Z-0.125
G01 X65.402 Y28.64121 Z-0.125
G01 X65.83953 Y28.60653 Z-0.125
G01 X66.38824 Y28.50435 Z-0.125
G01 X66.93093 Y28.3739 Z-0.125
G01 X67.46613 Y28.21552 Z-0.125
G01 X67.52506 Y28.2062 Z-0.125
G01 X67.55291 Y28.20824 Z-0.125
G01 X67.58859 Y28.22618 Z-0.125
G01 X67.60299 Y28.24835 Z-0.125
G01 X67.60737 Y28.27209 Z-0.125
G01 X67.60208 Y28.29809 Z-0.125
G01 X67.58108 Y28.32921 Z-0.125
G01 X67.55112 Y28.34971 Z-0.125
G01 X67.08122 Y28.55531 Z-0.125
G01 X66.60997 Y28.75778 Z-0.125
G01 X66.13738 Y28.95711 Z-0.125
G01 X65.66347 Y29.15329 Z-0.125
G01 X64.88806 Y29.32541 Z-0.125
G00 Z5
(End cutting path id: path28128)
(Start cutting path id: path28128)
(Change tool to Default tool)
G00 Z5
G00 X83.01982 Y28.52789
(Penetrate)
F100
G01 Z-0.125
F400
G01 X82.52281 Y28.43207 Z-0.125
G01 X82.08786 Y28.17317 Z-0.125
G01 X81.65484 Y27.7975 Z-0.125
G01 X81.22517 Y27.418 Z-0.125
G01 X80.79891 Y27.03468 Z-0.125
G01 X80.37607 Y26.64759 Z-0.125
G01 X79.9567 Y26.25675 Z-0.125
G01 X79.54082 Y25.86219 Z-0.125
G01 X79.53849 Y25.85991 Z-0.125
G01 X79.4955 Y25.77042 Z-0.125
G01 X79.49499 Y25.76124 Z-0.125
G01 X79.51322 Y25.70918 Z-0.125
G01 X79.51885 Y25.70288 Z-0.125
G01 X79.57212 Y25.68081 Z-0.125
G01 X79.58909 Y25.68275 Z-0.125
G01 X79.69782 Y25.73501 Z-0.125
G01 X80.16109 Y26.08816 Z-0.125
G01 X80.63683 Y26.42434 Z-0.125
G01 X81.1244 Y26.7431 Z-0.125
G01 X81.62319 Y27.04402 Z-0.125
G01 X82.09791 Y27.27608 Z-0.125
G01 X82.6004 Y27.43953 Z-0.125
G01 X83.1208 Y27.53117 Z-0.125
G01 X83.49647 Y27.71023 Z-0.125
G01 X83.50349 Y27.71737 Z-0.125
G01 X83.6565 Y28.09533 Z-0.125
G01 X83.65474 Y28.13902 Z-0.125
G01 X83.55886 Y28.34644 Z-0.125
G01 X83.50232 Y28.39176 Z-0.125
G01 X83.16827 Y28.5177 Z-0.125
G01 X83.09502 Y28.52594 Z-0.125
G01 X83.03496 Y28.52802 Z-0.125
G01 X83.01981 Y28.52788 Z-0.125
G01 X83.01982 Y28.52789 Z-0.125
G00 Z5
(End cutting path id: path28128)
(Start cutting path id: path28128)
(Change tool to Default tool)
G00 Z5
G00 X28.34888 Y28.20181
(Penetrate)
F100
G01 Z-0.125
F400
G01 X28.30209 Y28.20267 Z-0.125
G01 X28.27463 Y28.20238 Z-0.125
G01 X28.20042 Y28.19862 Z-0.125
G01 X28.15393 Y28.19947 Z-0.125
G01 X28.12631 Y28.19917 Z-0.125
G01 X28.05224 Y28.19544 Z-0.125
G01 X28.05224 Y28.19515 Z-0.125
G01 X27.19497 Y27.79567 Z-0.125
G01 X27.06376 Y27.64386 Z-0.125
G01 X26.77756 Y27.09415 Z-0.125
G01 X26.67882 Y26.48232 Z-0.125
G01 X26.68291 Y26.35615 Z-0.125
G01 X26.8452 Y25.70717 Z-0.125
G01 X27.22583 Y25.15705 Z-0.125
G01 X27.22983 Y25.15307 Z-0.125
G01 X27.65728 Y24.86885 Z-0.125
G01 X28.1608 Y24.76909 Z-0.125
G01 X28.27465 Y24.77401 Z-0.125
G01 X35.59358 Y24.57702 Z-0.125
G01 X29.59997 Y16.54356 Z-0.125
G01 X29.22512 Y15.75457 Z-0.125
G01 X29.18774 Y15.37172 Z-0.125
G01 X29.26262 Y14.83246 Z-0.125
G01 X29.71847 Y14.05468 Z-0.125
G01 X29.7195 Y14.05364 Z-0.125
G01 X30.41016 Y13.68245 Z-0.125
G01 X30.66334 Y13.65692 Z-0.125
G01 X31.1763 Y13.76526 Z-0.125
G01 X31.64352 Y14.08548 Z-0.125
G01 X31.82898 Y14.30975 Z-0.125
G01 X37.19456 Y21.49184 Z-0.125
G01 X41.51737 Y18.26736 Z-0.125
G01 X39.327 Y19.12257 Z-0.125
G01 X39.30265 Y19.13411 Z-0.125
G01 X39.27732 Y19.14043 Z-0.125
G01 X37.69759 Y19.02887 Z-0.125
G01 X37.66402 Y19.02302 Z-0.125
G01 X37.63192 Y19.00815 Z-0.125
G01 X37.61688 Y18.99491 Z-0.125
G01 X37.5903 Y18.95958 Z-0.125
G01 X37.56818 Y18.89276 Z-0.125
G01 X37.55961 Y18.88348 Z-0.125
G01 X37.55161 Y18.87332 Z-0.125
G01 X37.55094 Y18.85708 Z-0.125
G01 X37.55096 Y18.85417 Z-0.125
G01 X37.55218 Y18.83507 Z-0.125
G01 X34.44293 Y7.80218 Z-0.125
G01 X35.00694 Y7.58639 Z-0.125
G01 X38.08473 Y18.52365 Z-0.125
G01 X38.73153 Y18.27184 Z-0.125
G01 X35.77653 Y7.87039 Z-0.125
G01 X36.34027 Y7.65461 Z-0.125
G01 X39.27898 Y18.05573 Z-0.125
G01 X48.45193 Y14.41753 Z-0.125
G01 X45.53859 Y3.48407 Z-0.125
G01 X46.10205 Y3.28708 Z-0.125
G01 X49.04629 Y14.3356 Z-0.125
G01 X49.60479 Y14.44332 Z-0.125
G01 X46.75299 Y3.77764 Z-0.125
G01 X47.33301 Y3.58129 Z-0.125
G01 X50.26152 Y14.5721 Z-0.125
G01 X50.27052 Y14.59068 Z-0.125
G01 X50.27752 Y14.61068 Z-0.125
G01 X50.28593 Y14.61999 Z-0.125
G01 X50.29377 Y14.63015 Z-0.125
G01 X50.29389 Y14.63708 Z-0.125
G01 X50.29388 Y14.63961 Z-0.125
G01 X50.29353 Y14.64906 Z-0.125
G01 X50.3033 Y14.67694 Z-0.125
G01 X50.30871 Y14.70675 Z-0.125
G01 X50.30937 Y14.72281 Z-0.125
G01 X50.30935 Y14.72574 Z-0.125
G01 X50.30815 Y14.74468 Z-0.125
G01 X50.44531 Y15.24011 Z-0.125
G01 X50.59151 Y15.73295 Z-0.125
G01 X50.74671 Y16.22303 Z-0.125
G01 X50.91085 Y16.71018 Z-0.125
G01 X51.08388 Y17.19425 Z-0.125
G01 X51.26574 Y17.67507 Z-0.125
G01 X51.45637 Y18.15249 Z-0.125
G01 X51.65571 Y18.62633 Z-0.125
G01 X51.86368 Y19.09645 Z-0.125
G01 X52.08023 Y19.56268 Z-0.125
G01 X52.30527 Y20.02487 Z-0.125
G01 X52.53781 Y20.48824 Z-0.125
G01 X52.77302 Y20.95025 Z-0.125
G01 X53.01088 Y21.41091 Z-0.125
G01 X53.25138 Y21.87019 Z-0.125
G01 X53.49452 Y22.32809 Z-0.125
G01 X53.74029 Y22.78457 Z-0.125
G01 X53.98868 Y23.23964 Z-0.125
G01 X54.23969 Y23.69327 Z-0.125
G01 X54.49329 Y24.14545 Z-0.125
G01 X54.7495 Y24.59616 Z-0.125
G01 X55.00828 Y25.04539 Z-0.125
G01 X55.26965 Y25.49313 Z-0.125
G01 X55.53359 Y25.93936 Z-0.125
G01 X55.80009 Y26.38406 Z-0.125
G01 X56.06914 Y26.82723 Z-0.125
G01 X56.50236 Y27.5221 Z-0.125
G01 X55.78024 Y27.35348 Z-0.125
G01 X54.54901 Y27.0784 Z-0.125
G01 X54.4345 Y27.03792 Z-0.125
G01 X54.3702 Y26.94134 Z-0.125
G01 X54.30009 Y26.83838 Z-0.125
G01 X54.23086 Y26.73638 Z-0.125
G01 X54.1972 Y26.91672 Z-0.125
G01 X54.13621 Y27.12621 Z-0.125
G01 X53.84402 Y27.68847 Z-0.125
G01 X53.58481 Y27.9935 Z-0.125
G01 X53.42733 Y28.13793 Z-0.125
G01 X53.50652 Y28.03076 Z-0.125
G01 X53.57937 Y27.91321 Z-0.125
G01 X53.78144 Y27.41273 Z-0.125
G01 X53.85029 Y26.87742 Z-0.125
G01 X53.81325 Y26.48325 Z-0.125
G01 X53.62871 Y25.9564 Z-0.125
G01 X53.29717 Y25.50729 Z-0.125
G01 X53.09566 Y25.33261 Z-0.125
G01 X46.76623 Y20.58419 Z-0.125
G01 X45.90689 Y20.29547 Z-0.125
G01 X45.88424 Y20.29565 Z-0.125
G01 X45.003 Y20.60171 Z-0.125
G01 X44.82162 Y20.76048 Z-0.125
G01 X44.41128 Y21.39109 Z-0.125
G01 X44.27061 Y22.14628 Z-0.125
G01 X44.29578 Y22.47022 Z-0.125
G01 X44.48948 Y23.69263 Z-0.125
G01 X44.30797 Y23.50727 Z-0.125
G01 X44.13353 Y23.30376 Z-0.125
G01 X43.82876 Y22.80159 Z-0.125
G01 X43.60842 Y22.20726 Z-0.125
G01 X39.51739 Y27.368 Z-0.125
G01 X39.40421 Y27.49444 Z-0.125
G01 X39.03008 Y27.7693 Z-0.125
G01 X38.47021 Y27.91561 Z-0.125
G01 X28.34886 Y28.20181 Z-0.125
G01 X28.34888 Y28.20181 Z-0.125
G00 Z5
(End cutting path id: path28128)
(Start cutting path id: path28128)
(Change tool to Default tool)
G00 Z5
G00 X69.6383 Y27.41801
(Penetrate)
F100
G01 Z-0.125
F400
G01 X69.61707 Y27.41837 Z-0.125
G01 X69.38271 Y27.37217 Z-0.125
G01 X69.30713 Y27.32186 Z-0.125
G01 X69.24537 Y27.21018 Z-0.125
G01 X69.23505 Y27.11832 Z-0.125
G01 X69.30916 Y26.88186 Z-0.125
G01 X69.36518 Y26.81486 Z-0.125
G01 X69.57069 Y26.69189 Z-0.125
G01 X70.11776 Y26.46398 Z-0.125
G01 X70.60748 Y26.13023 Z-0.125
G01 X71.01905 Y25.76831 Z-0.125
G01 X71.41478 Y25.38914 Z-0.125
G01 X71.87725 Y24.90179 Z-0.125
G01 X71.88529 Y24.8933 Z-0.125
G01 X71.95169 Y24.84793 Z-0.125
G01 X71.97313 Y24.84344 Z-0.125
G01 X72.00887 Y24.85717 Z-0.125
G01 X72.01111 Y24.85929 Z-0.125
G01 X72.02798 Y24.89855 Z-0.125
G01 X72.02802 Y24.90164 Z-0.125
G01 X72.00362 Y24.97287 Z-0.125
G01 X71.67392 Y25.40683 Z-0.125
G01 X71.33865 Y25.83649 Z-0.125
G01 X70.99785 Y26.26178 Z-0.125
G01 X70.65158 Y26.68264 Z-0.125
G01 X70.2999 Y27.09898 Z-0.125
G01 X70.25179 Y27.15096 Z-0.125
G01 X69.63884 Y27.41801 Z-0.125
G01 X69.63828 Y27.41801 Z-0.125
G01 X69.6383 Y27.41801 Z-0.125
G00 Z5
(End cutting path id: path28128)
(Start cutting path id: path28128)
(Change tool to Default tool)
G00 Z5
G00 X65.64937 Y27.15886
(Penetrate)
F100
G01 Z-0.125
F400
G01 X65.59627 Y27.15987 Z-0.125
G01 X65.27874 Y27.12331 Z-0.125
G01 X65.02106 Y27.00745 Z-0.125
G01 X64.91552 Y26.91836 Z-0.125
G01 X64.81349 Y26.79403 Z-0.125
G01 X64.76641 Y26.63881 Z-0.125
G01 X64.77741 Y26.56121 Z-0.125
G01 X64.87027 Y26.4039 Z-0.125
G01 X64.99943 Y26.32042 Z-0.125
G01 X65.15935 Y26.29113 Z-0.125
G01 X65.32294 Y26.32182 Z-0.125
G01 X65.84173 Y26.47002 Z-0.125
G01 X66.37896 Y26.51999 Z-0.125
G01 X66.54395 Y26.51531 Z-0.125
G01 X67.11616 Y26.46782 Z-0.125
G01 X67.68511 Y26.3905 Z-0.125
G01 X68.24924 Y26.28357 Z-0.125
G01 X68.2905 Y26.27915 Z-0.125
G01 X68.33907 Y26.28531 Z-0.125
G01 X68.37046 Y26.30323 Z-0.125
G01 X68.38776 Y26.33234 Z-0.125
G01 X68.39067 Y26.35208 Z-0.125
G01 X68.38284 Y26.38383 Z-0.125
G01 X68.36534 Y26.4076 Z-0.125
G01 X68.3265 Y26.43147 Z-0.125
G01 X67.70945 Y26.63174 Z-0.125
G01 X67.09107 Y26.82786 Z-0.125
G01 X66.47139 Y27.01985 Z-0.125
G01 X65.64937 Y27.15886 Z-0.125
G00 Z5
(End cutting path id: path28128)
(Start cutting path id: path28128)
(Change tool to Default tool)
G00 Z5
G00 X88.33076 Y27.03901
(Penetrate)
F100
G01 Z-0.125
F400
G01 X87.61719 Y26.83451 Z-0.125
G01 X87.15185 Y26.57792 Z-0.125
G01 X86.68873 Y26.31736 Z-0.125
G01 X86.22785 Y26.05285 Z-0.125
G01 X85.76925 Y25.78441 Z-0.125
G01 X85.74961 Y25.76922 Z-0.125
G01 X85.72538 Y25.72925 Z-0.125
G01 X85.72252 Y25.71056 Z-0.125
G01 X85.72924 Y25.68241 Z-0.125
G01 X85.74007 Y25.6674 Z-0.125
G01 X85.77967 Y25.65045 Z-0.125
G01 X85.78401 Y25.65039 Z-0.125
G01 X85.86141 Y25.66742 Z-0.125
G01 X86.35541 Y25.8813 Z-0.125
G01 X86.85965 Y26.06981 Z-0.125
G01 X87.3728 Y26.23245 Z-0.125
G01 X88.10426 Y26.3361 Z-0.125
G01 X88.49356 Y26.30716 Z-0.125
G01 X88.55565 Y26.30254 Z-0.125
G01 X88.78448 Y26.37038 Z-0.125
G01 X88.84353 Y26.41822 Z-0.125
G01 X88.94803 Y26.63579 Z-0.125
G01 X88.94952 Y26.66308 Z-0.125
G01 X88.8773 Y26.83917 Z-0.125
G01 X88.87397 Y26.84252 Z-0.125
G01 X88.65968 Y26.98737 Z-0.125
G01 X88.50863 Y27.03053 Z-0.125
G01 X88.37994 Y27.04045 Z-0.125
G01 X88.33076 Y27.03901 Z-0.125
G01 X88.33076 Y27.03901 Z-0.125
G00 Z5
(End cutting path id: path28128)
(Start cutting path id: path28128)
(Change tool to Default tool)
G00 Z5
G00 X55.20104 Y26.522
(Penetrate)
F100
G01 Z-0.125
F400
G01 X54.99867 Y26.18907 Z-0.125
G01 X54.49603 Y25.34517 Z-0.125
G01 X53.95464 Y25.19951 Z-0.125
G01 X54.34826 Y25.79072 Z-0.125
G01 X54.77445 Y26.41713 Z-0.125
G01 X55.20104 Y26.522 Z-0.125
G00 Z5
(End cutting path id: path28128)
(Start cutting path id: path28128)
(Change tool to Default tool)
G00 Z5
G00 X83.48146 Y26.38366
(Penetrate)
F100
G01 Z-0.125
F400
G01 X82.76729 Y26.18168 Z-0.125
G01 X82.3013 Y25.92678 Z-0.125
G01 X81.83751 Y25.6679 Z-0.125
G01 X81.37594 Y25.40507 Z-0.125
G01 X80.91663 Y25.13831 Z-0.125
G01 X80.89688 Y25.12306 Z-0.125
G01 X80.87282 Y25.08345 Z-0.125
G01 X80.86993 Y25.0647 Z-0.125
G01 X80.87662 Y25.03662 Z-0.125
G01 X80.88756 Y25.02142 Z-0.125
G01 X80.92699 Y25.0044 Z-0.125
G01 X80.93239 Y25.00432 Z-0.125
G01 X81.0088 Y25.02102 Z-0.125
G01 X81.50334 Y25.23309 Z-0.125
G01 X82.00802 Y25.41974 Z-0.125
G01 X82.52154 Y25.5805 Z-0.125
G01 X83.24393 Y25.68155 Z-0.125
G01 X83.64261 Y25.65119 Z-0.125
G01 X83.70621 Y25.64634 Z-0.125
G01 X83.93385 Y25.71339 Z-0.125
G01 X83.99391 Y25.76187 Z-0.125
G01 X84.09818 Y25.97822 Z-0.125
G01 X84.09974 Y26.00623 Z-0.125
G01 X84.02791 Y26.18203 Z-0.125
G01 X84.02329 Y26.18669 Z-0.125
G01 X83.81038 Y26.33108 Z-0.125
G01 X83.65936 Y26.37469 Z-0.125
G01 X83.52797 Y26.38495 Z-0.125
G01 X83.48146 Y26.38367 Z-0.125
G01 X83.48146 Y26.38366 Z-0.125
G00 Z5
(End cutting path id: path28128)
(Start cutting path id: path28128)
(Change tool to Default tool)
G00 Z5
G00 X66.78539 Y25.37673
(Penetrate)
F100
G01 Z-0.125
F400
G01 X66.19121 Y25.36034 Z-0.125
G01 X65.59746 Y25.33227 Z-0.125
G01 X65.00438 Y25.29253 Z-0.125
G01 X64.4122 Y25.24114 Z-0.125
G01 X63.82491 Y24.96401 Z-0.125
G01 X63.7443 Y24.87247 Z-0.125
G01 X63.74406 Y24.87247 Z-0.125
G01 X63.60789 Y24.61663 Z-0.125
G01 X63.59498 Y24.5369 Z-0.125
G01 X63.63203 Y24.40518 Z-0.125
G01 X63.67561 Y24.34981 Z-0.125
G01 X63.87748 Y24.26273 Z-0.125
G01 X63.8902 Y24.26254 Z-0.125
G01 X64.16707 Y24.36151 Z-0.125
G01 X64.66091 Y24.68843 Z-0.125
G01 X65.21065 Y24.90873 Z-0.125
G01 X65.71858 Y25.04021 Z-0.125
G01 X66.23265 Y25.1451 Z-0.125
G01 X66.75149 Y25.22309 Z-0.125
G01 X66.83004 Y25.25131 Z-0.125
G01 X66.84175 Y25.26073 Z-0.125
G01 X66.86214 Y25.30788 Z-0.125
G01 X66.84479 Y25.3517 Z-0.125
G01 X66.84305 Y25.3535 Z-0.125
G01 X66.78693 Y25.37674 Z-0.125
G01 X66.78543 Y25.37673 Z-0.125
G01 X66.78539 Y25.37673 Z-0.125
G00 Z5
(End cutting path id: path28128)
(Start cutting path id: path28128)
(Change tool to Default tool)
G00 Z5
G00 X54.03191 Y24.5161
(Penetrate)
F100
G01 Z-0.125
F400
G01 X53.77715 Y24.06212 Z-0.125
G01 X53.52482 Y23.60678 Z-0.125
G01 X53.27492 Y23.1501 Z-0.125
G01 X53.02745 Y22.69211 Z-0.125
G01 X52.78242 Y22.23279 Z-0.125
G01 X52.53985 Y21.77218 Z-0.125
G01 X52.29974 Y21.31029 Z-0.125
G01 X52.06208 Y20.84712 Z-0.125
G01 X51.8269 Y20.38269 Z-0.125
G01 X51.59684 Y19.91484 Z-0.125
G01 X51.37531 Y19.4429 Z-0.125
G01 X51.16237 Y18.96701 Z-0.125
G01 X50.9581 Y18.48734 Z-0.125
G01 X50.76256 Y18.00405 Z-0.125
G01 X50.57582 Y17.51729 Z-0.125
G01 X50.39794 Y17.02722 Z-0.125
G01 X50.22898 Y16.534 Z-0.125
G01 X50.06899 Y16.03781 Z-0.125
G01 X49.91803 Y15.53879 Z-0.125
G01 X49.77614 Y15.03711 Z-0.125
G01 X49.29491 Y15.23569 Z-0.125
G01 X49.4393 Y15.72691 Z-0.125
G01 X49.59115 Y16.21588 Z-0.125
G01 X49.75044 Y16.70247 Z-0.125
G01 X49.91713 Y17.18658 Z-0.125
G01 X50.09117 Y17.6681 Z-0.125
G01 X50.27253 Y18.1469 Z-0.125
G01 X50.46116 Y18.62289 Z-0.125
G01 X50.65703 Y19.09595 Z-0.125
G01 X50.86007 Y19.56597 Z-0.125
G01 X51.07026 Y20.03284 Z-0.125
G01 X51.303 Y20.52969 Z-0.125
G01 X51.54309 Y21.02304 Z-0.125
G01 X51.79047 Y21.51277 Z-0.125
G01 X52.04509 Y21.99877 Z-0.125
G01 X52.30691 Y22.48094 Z-0.125
G01 X52.57585 Y22.95916 Z-0.125
G01 X52.85186 Y23.43335 Z-0.125
G01 X53.13488 Y23.90338 Z-0.125
G01 X53.42485 Y24.36916 Z-0.125
G01 X54.03191 Y24.5161 Z-0.125
G00 Z5
(End cutting path id: path28128)
(Start cutting path id: path28128)
(Change tool to Default tool)
G00 Z5
G00 X51.43866 Y22.2211
(Penetrate)
F100
G01 Z-0.125
F400
G01 X51.17222 Y21.71284 Z-0.125
G01 X50.91516 Y21.19977 Z-0.125
G01 X50.66755 Y20.68207 Z-0.125
G01 X50.42948 Y20.15992 Z-0.125
G01 X50.20104 Y19.63349 Z-0.125
G01 X49.98229 Y19.10295 Z-0.125
G01 X49.78049 Y18.58953 Z-0.125
G01 X49.58631 Y18.07319 Z-0.125
G01 X49.3998 Y17.55403 Z-0.125
G01 X49.22099 Y17.03216 Z-0.125
G01 X49.04992 Y16.50771 Z-0.125
G01 X48.88664 Y15.98078 Z-0.125
G01 X48.73117 Y15.45149 Z-0.125
G01 X46.86088 Y16.18174 Z-0.125
G01 X47.25037 Y16.45272 Z-0.125
G01 X47.37299 Y16.56762 Z-0.125
G01 X47.61998 Y16.85367 Z-0.125
G01 X47.97596 Y17.33605 Z-0.125
G01 X48.32867 Y17.82083 Z-0.125
G01 X48.67809 Y18.30798 Z-0.125
G01 X49.0242 Y18.79748 Z-0.125
G01 X49.367 Y19.28932 Z-0.125
G01 X49.65941 Y19.71063 Z-0.125
G01 X49.95301 Y20.13112 Z-0.125
G01 X50.24779 Y20.55079 Z-0.125
G01 X50.54374 Y20.96962 Z-0.125
G01 X50.84087 Y21.38762 Z-0.125
G01 X51.13918 Y21.80478 Z-0.125
G01 X51.43866 Y22.2211 Z-0.125
G00 Z5
(End cutting path id: path28128)
(Start cutting path id: path28128)
(Change tool to Default tool)
G00 Z5
G00 X93.06445 Y21.46057
(Penetrate)
F100
G01 Z-0.125
F400
G01 X93.06445 Y20.03607 Z-0.125
G01 X95.53076 Y20.03607 Z-0.125
G01 X95.53076 Y21.46057 Z-0.125
G01 X93.06445 Y21.46057 Z-0.125
G00 Z5
(End cutting path id: path28128)
(Start cutting path id: path28128)
(Change tool to Default tool)
G00 Z5
G00 X73.17966 Y18.69636
(Penetrate)
F100
G01 Z-0.125
F400
G01 X73.77265 Y17.49755 Z-0.125
G01 X72.52073 Y17.49755 Z-0.125
G01 X72.52073 Y16.39371 Z-0.125
G01 X71.63111 Y16.39371 Z-0.125
G01 X71.63111 Y5.50904 Z-0.125
G01 X66.21145 Y5.50904 Z-0.125
G01 X66.21145 Y3.20639 Z-0.125
G01 X84.15088 Y3.20639 Z-0.125
G01 X84.15088 Y5.50904 Z-0.125
G01 X78.54993 Y5.50904 Z-0.125
G01 X78.54993 Y16.39371 Z-0.125
G01 X77.79221 Y16.39371 Z-0.125
G01 X77.79221 Y17.49755 Z-0.125
G01 X76.40839 Y17.49755 Z-0.125
G01 X77.00138 Y18.69636 Z-0.125
G01 X73.17966 Y18.69636 Z-0.125
G00 Z5
(End cutting path id: path28128)
(Footer)
M5
G00 X0 Y0
M02
%
